src/activities/sport/1F3F8.svg

<?xml version="1.0" encoding="UTF-8"?>
<svg id="emoji" xmlns="http://www.w3.org/2000/svg" viewBox="0 0 72 72">
  <g id="grid">
    <path d="m68,4v64H4V4h64M72,0H0v72h72V0Z" fill="#b3b3b3"/>
    <path d="m12.923,10.9583h46.1539c1.0621,0,1.9231.861,1.9231,1.9231h0v46.1538c0,1.0621-.861,1.9231-1.9231,1.9231H12.9231c-1.0621,0-1.9231-.861-1.9231-1.9231h0V12.8813c0-1.062.861-1.923,1.923-1.923h0Z" fill="none" stroke="#00a5ff" stroke-miterlimit="10" stroke-width=".1"/>
    <rect x="16" y="4" width="40" height="64" rx="2.2537" ry="2.2537" fill="none" stroke="#00a5ff" stroke-miterlimit="10" stroke-width=".1"/>
    <rect x="4" y="16" width="64" height="40" rx="2.2537" ry="2.2537" fill="none" stroke="#00a5ff" stroke-miterlimit="10" stroke-width=".1"/>
    <circle cx="36" cy="36" r="29" fill="none" stroke="#00a5ff" stroke-miterlimit="10" stroke-width=".1"/>
  </g>
  <g id="color">
    <g>
      <g>
        <path d="m48.4009,52.2372c.2055-1.3254-.7025-2.5665-2.0279-2.772-1.3254-.2055-2.5665.7025-2.772,2.0279-.0382.2463-.0382.497-.0001.7432v3.6l-5.6022,11.1992,3.2.0005,1.6-1.6,1.6,1.6,1.6-1.6,1.6,1.6,1.6-1.6,1.6,1.6,3.2.0005-5.5987-11.1994v-3.1548l.0009-.4452Z" fill="#d0cfce" stroke="#d0cfce" stroke-linecap="round" stroke-linejoin="round" stroke-width="1.5"/>
        <path d="m48.4007,53.408v2.4s-5.575.0175-4.8-.0089v-2.4l4.8.0089Z" fill="#d22f27"/>
      </g>
      <polygon points="23.641 67.036 23.641 53.202 24.495 46.505 26.517 46.505 27.37 53.202 27.37 67.036 23.641 67.036" fill="#9b9b9a" stroke="#9b9b9a" stroke-linecap="round" stroke-linejoin="round" stroke-width="2"/>
      <rect x="24.7518" y="29.5072" width="1.5" height="16" fill="#3f3f3f"/>
      <g>
        <line x1="25.6963" y1="5.0007" x2="25.6963" y2="28.5" fill="none" stroke="#d0cfce" stroke-miterlimit="10" stroke-width="1.4843"/>
        <line x1="22.6963" y1="5.7006" x2="22.6963" y2="28" fill="none" stroke="#d0cfce" stroke-miterlimit="10" stroke-width="1.477"/>
        <line x1="19.6963" y1="8" x2="19.6963" y2="25.5" fill="none" stroke="#d0cfce" stroke-miterlimit="10" stroke-width="1.479"/>
        <line x1="28.6963" y1="5.6484" x2="28.6963" y2="28" fill="none" stroke="#d0cfce" stroke-miterlimit="10" stroke-width="1.4787"/>
        <line x1="31.6963" y1="8" x2="31.6963" y2="25.5" fill="none" stroke="#d0cfce" stroke-miterlimit="10" stroke-width="1.479"/>
        <line x1="17.0127" y1="14" x2="34.2518" y2="14" fill="none" stroke="#d0cfce" stroke-miterlimit="10" stroke-width="1.468"/>
        <line x1="16.7518" y1="17" x2="34.2518" y2="17" fill="none" stroke="#d0cfce" stroke-miterlimit="10" stroke-width="1.479"/>
        <line x1="17.0754" y1="20" x2="33.7518" y2="20" fill="none" stroke="#d0cfce" stroke-miterlimit="10" stroke-width="1.4857"/>
        <line x1="17.9215" y1="11" x2="33.2518" y2="11" fill="none" stroke="#d0cfce" stroke-miterlimit="10" stroke-width="1.4918"/>
        <line x1="19.7518" y1="8" x2="31.7518" y2="8" fill="none" stroke="#d0cfce" stroke-miterlimit="10" stroke-width="1.5"/>
        <line x1="20.0458" y1="26" x2="31.2518" y2="26" fill="none" stroke="#d0cfce" stroke-miterlimit="10" stroke-width="1.5"/>
        <line x1="18.0629" y1="23" x2="33.2518" y2="23" fill="none" stroke="#d0cfce" stroke-miterlimit="10" stroke-width="1.4615"/>
      </g>
      <ellipse cx="25.7518" cy="16.8421" rx="9" ry="11.8421" fill="none" stroke="#3f3f3f" stroke-miterlimit="10" stroke-width="2"/>
    </g>
  </g>
  <g id="line">
    <g>
      <path d="m48.4009,52.2372c.2055-1.3254-.7025-2.5665-2.0279-2.772-1.3254-.2055-2.5665.7025-2.772,2.0279-.0382.2463-.0382.497-.0001.7432v3.6l-2.05,4.0979-.4957.991-3.0563,6.11,3.2.0005,1.6-1.6,1.6,1.6,1.6-1.6,1.6,1.6,1.6-1.6,1.6,1.6,3.2.0005-3.0631-6.1263-.5629-1.1263-1.9729-3.9465v-3.1548l.0009-.4452Z" fill="none" stroke="#000" stroke-linecap="round" stroke-linejoin="round" stroke-width="1.5"/>
      <path d="m48.4007,53.4372v2.4s-4.8-.0116-4.8-.0008v-2.4l4.8.0008Z" fill="none" stroke="#000" stroke-miterlimit="10" stroke-width="1.5"/>
    </g>
    <g>
      <polyline points="24.22 48.658 23.641 53.203 23.641 67.037 27.37 67.037 27.37 53.203" fill="none" stroke="#000" stroke-linecap="round" stroke-linejoin="round" stroke-width="2"/>
      <rect x="24.7518" y="29.5072" width="1.5" height="16"/>
      <ellipse cx="25.7518" cy="16.8421" rx="9" ry="11.8421" fill="none" stroke="#000" stroke-miterlimit="10" stroke-width="2"/>
    </g>
  </g>
</svg>

<svg id="emoji" viewBox="0 0 72 72" xmlns="http://www.w3.org/2000/svg">
  <g id="grid">
    <path fill="#b3b3b3" d="M68,4V68H4V4H68m4-4H0V72H72V0Z"/>
    <path fill="none" stroke="#00a5ff" stroke-miterlimit="10" stroke-width="0.1" d="M12.923,10.9583H59.0769A1.9231,1.9231,0,0,1,61,12.8814V59.0352a1.9231,1.9231,0,0,1-1.9231,1.9231H12.9231A1.9231,1.9231,0,0,1,11,59.0352V12.8813A1.923,1.923,0,0,1,12.923,10.9583Z"/>
    <rect x="16" y="4" rx="2.2537" width="40" height="64" fill="none" stroke="#00a5ff" stroke-miterlimit="10" stroke-width="0.1"/>
    <rect x="16" y="4" rx="2.2537" width="40" height="64" transform="translate(72) rotate(90)" fill="none" stroke="#00a5ff" stroke-miterlimit="10" stroke-width="0.1"/>
    <circle cx="36" cy="36" r="29" fill="none" stroke="#00a5ff" stroke-miterlimit="10" stroke-width="0.1"/>
  </g>
  <g id="color">
    <g>
      <g>
        <path fill="#d0cfce" stroke="#d0cfce" stroke-linecap="round" stroke-linejoin="round" stroke-width="1.5" d="M48.4009,52.2372a2.4286,2.4286,0,1,0-4.8-.0008v.4452l0,3.1548L37.9987,67.0356l3.2.0005,1.6-1.6,1.6,1.6,1.6-1.6,1.6,1.6,1.6-1.6,1.6,1.6,3.2.0005L48.4,55.8372l0-3.1548Z"/>
        <path fill="#d22f27" d="M49.1757,53.4373l0,2.4s-6.35-.0118-6.35-.001l0-2.4Z"/>
      </g>
      <polygon fill="#9b9b9a" stroke="#9b9b9a" stroke-linecap="round" stroke-linejoin="round" stroke-width="2" points="23.641 67.036 23.641 53.202 24.495 46.505 26.517 46.505 27.37 53.202 27.37 67.036 23.641 67.036"/>
      <rect x="24.7518" y="29.5072" width="1.5" height="16" fill="#3f3f3f"/>
      <g>
        <line x1="25.6963" x2="25.6963" y1="4.5" y2="28.5" fill="none" stroke="#d0cfce" stroke-miterlimit="10" stroke-width="1.5"/>
        <line x1="22.6963" x2="22.6963" y1="5" y2="28" fill="none" stroke="#d0cfce" stroke-miterlimit="10" stroke-width="1.5"/>
        <line x1="19.6963" x2="19.6963" y1="7.5" y2="25.5" fill="none" stroke="#d0cfce" stroke-miterlimit="10" stroke-width="1.5"/>
        <line x1="28.6963" x2="28.6963" y1="5" y2="28" fill="none" stroke="#d0cfce" stroke-miterlimit="10" stroke-width="1.5"/>
        <line x1="31.6963" x2="31.6963" y1="7.5" y2="25.5" fill="none" stroke="#d0cfce" stroke-miterlimit="10" stroke-width="1.5"/>
        <line x1="16.2518" x2="34.2518" y1="14" y2="14" fill="none" stroke="#d0cfce" stroke-miterlimit="10" stroke-width="1.5"/>
        <line x1="16.2518" x2="34.2518" y1="17" y2="17" fill="none" stroke="#d0cfce" stroke-miterlimit="10" stroke-width="1.5"/>
        <line x1="16.7518" x2="33.7518" y1="20" y2="20" fill="none" stroke="#d0cfce" stroke-miterlimit="10" stroke-width="1.5"/>
        <line x1="17.7518" x2="33.2518" y1="11" y2="11" fill="none" stroke="#d0cfce" stroke-miterlimit="10" stroke-width="1.5"/>
        <line x1="19.2518" x2="31.2518" y1="8" y2="8" fill="none" stroke="#d0cfce" stroke-miterlimit="10" stroke-width="1.5"/>
        <line x1="19.2518" x2="31.2518" y1="26" y2="26" fill="none" stroke="#d0cfce" stroke-miterlimit="10" stroke-width="1.5"/>
        <line x1="17.2518" x2="33.2518" y1="23" y2="23" fill="none" stroke="#d0cfce" stroke-miterlimit="10" stroke-width="1.5"/>
      </g>
      <ellipse cx="25.7518" cy="16.8421" rx="9" ry="11.8421" fill="none" stroke="#3f3f3f" stroke-miterlimit="10" stroke-width="2"/>
    </g>
  </g>
  <g id="line">
    <g>
      <path fill="none" stroke="#000" stroke-linecap="round" stroke-linejoin="round" stroke-width="1.5" d="M48.4009,52.2372a2.4286,2.4286,0,1,0-4.8-.0008v.4452l0,3.1548-2.05,4.0979-.4957.991-3.0563,6.11,3.2.0005,1.6-1.6,1.6,1.6,1.6-1.6,1.6,1.6,1.6-1.6,1.6,1.6,3.2.0005L50.9358,60.91l-.5629-1.1263L48.4,55.8372l0-3.1548Z"/>
      <path fill="none" stroke="#000" stroke-miterlimit="10" stroke-width="1.5" d="M48.4007,53.4372l0,2.4s-4.8-.0116-4.8-.0008l0-2.4Z"/>
    </g>
    <g>
      <polyline fill="none" stroke="#000" stroke-linecap="round" stroke-linejoin="round" stroke-width="2" points="24.22 48.658 23.641 53.203 23.641 67.037 27.37 67.037 27.37 53.203"/>
      <rect x="24.7518" y="29.5072" width="1.5" height="16"/>
      <ellipse cx="25.7518" cy="16.8421" rx="9" ry="11.8421" fill="none" stroke="#000" stroke-miterlimit="10" stroke-width="2"/>
    </g>
  </g>
</svg>
